X: 81
T: Brenda Stubbert's Reel
C:Jerry Holland
O:Cape Breton
R:reel
M:C|
L:1/8
K:Am
B|"Am"~A2BA GAAB  | ~A2Bd "G"eddB | G2BA BGGB | "C"c2BA "G"BGGB |
"Am"~A2BA GAAB  | ~A2Bd edda    | "G"gedB GABd  | "(Em)"e2dB "Am"eAA :|
B|"Am"~A2a2 ~A2g2 | Aage ageg  | "G"G2BA BGGB | "C"c2BA "G"BGGB |
"Am"~A2a2 ~A2g2 | Aage agea     | "G"gedB GABd  | "(Em)"e2dB "Am"eAA |
B |"Am"~A2a2 ~A2g2 | Aage ageg  | "G"G2BA BGGB | "C"c2BA "G"BGGB |
"Am"~A2BA GAAB  | A2Bd edda    | "G"gedB GABd  | "(Em)"e2dB "Am"eAA ||


